!!!!SEGMENT: pl-wtm--r-1368_stefani-jozef--mazur.krn
!!!cenid: 18xx:2409
!!!COM: Stefani, Józef
!!!COM-rismID: pe30024097
!!!CDT: 1800/04/16-1876/03/19
!!!CNT: Polish
!!!OTL: Mazur
!!!PDT:
!!!AGN: Secular; Mazurka
!!!SMS-siglum: PL-Wtm
!!!SMS-shelfmark: R 1368
!!!SMS-shelfwork: W
!!!SMS-variant:
!!!SMS-altvar:
!!!NIFC-rismSourceID: 1001117214
!!!NIFC-rismChildID: 1001117214
!!!NIFC-islandoraID: pl-wtm:25377
!!!URL-pdf-islandora: https://repozytorium.nifc.pl/islandora/object/pl-wtm%3A25377/datastream/PDF/view
!!!URL-scan: https://polish.musicsources.pl/pl/lokalizacje/galeria/rekopisy/6217 @EN{Scan on Polish Music Sources Website} @PL{Skany w portalu Dziedzictwo Muzyki Polskiej w otwartym dostępie}
!!!IIIF:
!!!ONB-nifc:
!!!AIN: 1 empty
!!!key:
**kern	**kern	**dynam
*part1	*part1	*part1
*staff2	*staff1	*
*Iempty	*Iforte	*
*	*I"Fortepian	*
*>[A,A,B,B,C,C,D,D,E]	*>[A,A,B,B,C,C,D,D,E]	*>[A,A,B,B,C,C,D,D,E]
*>A	*>A	*>A
*clefF4	*clefG2	*
*k[f#c#]	*k[f#c#]	*
*D:	*D:	*
*M3/8	*M3/8	*
=1	=1	=1
!	!	!LO:DY:rj
8D 8DD/	8ddd| 8aa 8ff#\	f
4d 4A 4F# 4D\	4aa| 4ff# 4dd^<\	.
=2	=2	=2
8G 8GG/	8bb| 8gg 8dd\	.
4e 4d 4B 4G#X\	4ee| 4dd 4b^\	.
=3	=3	=3
.	(8qff#/	.
*^	*	*
!	!	!	!LO:DY:rj
4.A/	8A\L	16.ee\LL)	p
.	.	32dd#X|\JJk	.
.	8g 8e 8c#\	16ee|\LL	.
.	.	16ff#|\	.
.	8gJ 8e 8c#\	16gg|\	.
.	.	16bb|\JJ	.
*v	*v	*	*
=4	=4	=4
8D\L	(16gg#X\LL	.
.	16aa\)	.
8f# 8d 8A\	16ddd'\	.
.	16eee'\JJ	.
8f#J 8d 8A\	8fff#'\	.
=5	=5	=5
!	!	!LO:DY:rj
8D 8DD/	8ddd 8aa 8ff#\	f
4d 4A 4F# 4D\	4aa 4ff# 4dd^<\	.
!!LO:LB:g=original
=6	=6	=6
8G 8GG/	8bb 8gg 8dd\	.
4e 4d 4B 4G#X\	4ee 4dd 4b^<\	.
=7	=7	=7
.	(8qb/	.
*^	*	*
4.A/	8A\L	16.a/LL)	.
.	.	32g#X/JJk|	.
.	8g 8e 8c#\	16a\LL	.
.	.	16gg\	.
.	8gJ 8e 8c#\	16b\	.
.	.	16cc#\JJ	.
*v	*v	*	*
=8	=8	=8
16f# 16d\	(32ee\KLL	.
.	16dd\JJ)	.
16r	.	.
.	32r	.
8d 8D\	8ddd 8ff# 8dd\	.
8r	8r	.
=9:|!|:	=9:|!|:	=9:|!|:
*>B	*>B	*>B
.	8qff#/	.
!	!	!LO:DY:rj
8AA/	16.ee\LL	mf
.	32dd#X\JJk|	.
8c#L 8A 8E\	8ee\L|	.
8c#J 8A 8E\	8aa\J|	.
=10	=10	=10
8EE/	(16aa\LL	.
.	16gg#X\JJ)	.
8dL 8G#X 8E\	4bb\	.
8dJ 8G# 8E\	.	.
!!LO:LB:g=original
=11	=11	=11
.	8qff#/	.
8EE/	16.ee\LL	.
.	32dd#X\JJk	.
8dL 8G#X 8E\	8ee\L	.
8dJ 8G# 8E\	8bb\J	.
=12	=12	=12
8AA/	(16bb\LL	.
.	16aa\JJ)	.
8c#L 8A 8E\	4ccc#\	.
8c#J 8A 8E\	.	.
=13	=13	=13
.	8qff#/	<
8C#/	16.ee\LL	.
.	32dd#X\JJk	.
8eL 8A 8Gn\	8ee\L	.
8eJ 8A 8G\	8eeeJ 8ee\	[[
=14	=14	=14
*^	*	*
4D/	8D\L	(16eee\LL	.
.	.	16ddd\JJ)	>
.	8d 8B 8F#\	8ff#'\L	.
8ryy	8dJ 8B 8F# 8D\	(16ccc#\L	.
.	.	16bb\JJ)	]]
=15	=15	=15	=15
4E/	8E\L	(16aa\LL	.
.	.	16ee\	.
.	8c# 8A\	16dd#X\	.
.	.	16ee\)	.
!	!LO:SIC:v:n=2:s=8G#	!	!
8ryy	8dJ 8G 8E\	(16ccc#\	.
.	.	16bb\JJ)	.
*v	*v	*	*
!!LO:LB:g=original
=16	=16	=16
8c# 8A\	8aa\	.
8A 8AA/	8aa 8cc# 8a^<\	.
(16AA/LL	(16aa\LL	f
32BB/L	32bb\L	.
32C#/JJJ	32ccc#\JJJ	.
=17	=17	=17
8D/)	8ddd\)	.
4d 4A 4F# 4D\	4aa 4ff# 4dd^<\	.
=18	=18	=18
8G 8GG/	8bb 8gg 8dd\	.
4e 4d 4B 4G#X\	4ee 4dd 4b^<\	.
=19	=19	=19
.	(8qff#/	.
*^	*	*
!	!	!	!LO:DY:rj
4.A/	8A\L	16.ee\LL)	p
.	.	32dd#X\JJk|	.
.	8g 8e 8c#\	16ee|\LL	.
.	.	16ff#|\	.
.	8gJ 8e 8c#\	16gg|\	.
.	.	16bb|\JJ	.
*v	*v	*	*
=20	=20	=20
8D\L	(16gg#X\LL	.
.	16aa\)	.
8f# 8d 8A\	16ddd'\	.
.	16eee'\J	.
8f#J 8d 8A\	8fff#'\J	.
!!LO:LB:g=original
=21	=21	=21
!	!	!LO:DY:rj
8D 8DD/	8ddd 8aa 8ff#\	f
4d 4A 4F# 4D'\	4aa 4ff# 4dd^<\	.
=22	=22	=22
8G 8GG/	8bb 8gg 8dd\	.
4e 4d 4B 4G#X\	4ee 4dd 4b^<\	.
=23	=23	=23
.	(8qb/	.
*^	*	*
4.A/	8A\L	16.a/LL)	.
.	.	32g#X/JJk	.
.	8g 8e\	16a\LL	.
.	.	16gg\	.
.	8gJ 8e\	16b\	.
.	.	16cc#\JJ	.
*v	*v	*	*
=24	=24	=24
16f# 16d\	(32ee\KLL	.
.	16dd\JJ)	.
16r	.	.
.	32r	.
8d 8D\	8ddd 8ff# 8dd^<\	.
!	!LO:TX:t=P:problem=fermata na kresce taktowej	!
8r	8r;	.
*kcancel	*kcancel	*
!!LO:LB:g=original
=25:|!	=25:|!	=25:|!
*>C	*>C	*>C
*k[f#]	*k[f#]	*
*M3/8	*M3/8	*
!	!LO:TX:a:i:t=Trio	!LO:DY:rj
16.GLL 16.D 16.GG\	16.gLL 16.d 16.B/	f
32GJJk 32D 32GG\	32gJJk 32d 32B/	.
8GL 8D 8GG\	8gL 8d 8B/	.
8GJ 8D 8GG\	8gJ 8d 8B/	.
=26	=26	=26
8GL 8D 8GG\	8gL 8d 8B/	.
8G 8D 8GG\	8g 8d 8B/	.
8GJ 8D 8GG\	8gJ 8d 8B/	.
=27	=27	=27
*^	*	*
4.GG/	8GG\L	16.ddLL 16.b\	.
.	.	32ddJJk 32b\	.
.	8G\	8cc#XL 8a#X\	.
.	8G\J	8eeJ 8ccn\	.
=28	=28	=28	=28
*rep	*rep	*	*
4.GG/	8GG\L	16.ddLL 16.b\	.
.	.	32ddJJk 32b\	.
.	8G\	8cc#XL 8a#X\	.
.	8G\J	8eeJ 8ccn\	.
*Xrep	*Xrep	*	*
*v	*v	*	*
!!LO:PB:g=original
=29	=29	=29
8GL 8GG/	16.ddLL 16.b\	.
.	32eeJJk 32cc\	.
8G 8GG/	8ddL 8b\	.
8GJ 8GG/	8bJ 8g\	.
=30	=30	=30
8D 8DD/	(16ddLL 16b\	.
.	16ccJJ 16a\)	.
4D 4DD/	4a 4f#/	.
=31	=31	=31
*	*Xtuplet	*
8D 8DD/	24d'/LL	.
.	(24f#/	.
.	24g/JJ)	.
8cL 8A 8D\	8a/L	.
8cJ 8A 8D\	8f#'/J	.
=32	=32	=32
8GG/	16.g/LL	.
.	32a/JJk	.
8BL 8G 8D\	4b/	.
8BJ 8G 8D\	.	.
=33	=33	=33
8D 8DD/	24d'/LL	.
.	(24f#/	.
.	24g/JJ	.
8cL 8A 8D\	8a/L)	.
8cJ 8A 8D\	8f#/J	.
!!LO:LB:g=original
=34	=34	=34
8B 8G\	8g/	.
8G 8GG/	8gg 8dd 8b\	.
8r	8r	.
=35:|!|:	=35:|!|:	=35:|!|:
*>D	*>D	*>D
*^	*	*
!	!	!	!LO:DY:rj
4.D#X/	8D#\L	16.b/LL	p
.	.	32b/JJk	.
.	8B 8F#\	8a/L	.
.	8BJ 8F#\	8f#/J	.
=36	=36	=36	=36
.	.	(8qa/	.
4.E/	8E\L	16.g/LL)	.
.	.	32f#/JJk	.
.	8B 8G\	4e/	.
.	8BJ 8G\	.	.
*v	*v	*	*
=37	=37	=37
8BB\L	16d#X/LL	.
.	16f#/	.
8B 8A 8F# 8D#X\	16a/	.
.	16cc/	.
8BJ 8A 8F# 8D#\	16b/	.
.	16a/JJ	.
=38	=38	=38
*^	*	*
4.E/	8E\L	16.g/LL	.
.	.	32a/JJk	.
.	8B 8G\	4b/	.
.	8BJ 8G\	.	.
!!LO:LB:g=original
=39	=39	=39	=39
4.F#/	8F#\L	16.dd\LL	.
.	.	32dd\JJk	.
.	8d 8A\	8cc\L	.
.	8dJ 8A\	8a\J	.
=40	=40	=40	=40
.	.	8qcc/	.
4.G/	8G\L	16.b/LL	.
.	.	32a/JJk	.
.	8d 8B\	4g/	.
.	8dJ 8B\	.	.
*v	*v	*	*
=41	=41	=41
8AA/	16.b\LL	.
.	32a\JJk	.
8AL 8G 8E\	8b\L	.
8AJ 8G 8E\	8cc#X\J	.
=42	=42	=42
8A 8F# 8D\	8dd\	.
4F# 4FF#/	4ccn 4a 4d^/	.
=43	=43	=43
*tremolo	*	*
!	!	!LO:DY:rj
8GL 8GG/	16.bLL 16.g/	f
.	32ddJJk 32b/	.
8G 8GG/	8cc#XL 8a#X\	.
8GJ 8GG/	8eeJ 8ccn\	.
!!LO:LB:g=original
=44	=44	=44
8GL 8GG/	16.ddLL 16.b\	.
.	32ddJJk 32b\	.
8G 8GG/	8cc#XL 8a#X\	.
8GJ 8GG/	8eeJ 8ccn\	.
=45	=45	=45
8GL 8GG/	16.ddLL 16.b\	.
.	32eeJJk 32cc\	.
8G 8GG/	8ddL 8b\	.
8GJ 8GG/	8bJ 8g\	.
*Xtremolo	*	*
=46	=46	=46
8D 8DD/	(16ddLL 16b\	.
.	16ccJJ 16a\)	.
4D 4DD/	4a 4f#/	.
=47	=47	=47
8D 8DD/	24d/LL|	.
.	(24f#/	.
.	24g/JJ	.
8cL 8A 8D\	8a/L)	.
8cJ 8A 8D\	8f#'/J	.
=48	=48	=48
8GG/	16.g/LL	.
.	32a/JJk	.
8BL 8G 8D\	4b/	.
8BJ 8G 8D\	.	.
!!LO:LB:g=original
=49	=49	=49
8D 8DD/	24d'/LL	.
.	(24f#/	.
.	24g/JJ)	.
8cL 8A 8D\	8a/L	.
8cJ 8A 8D\	8f#'/J	.
=50	=50	=50
8B 8G\	8g/	.
8G 8GG/	8gg 8dd 8b^<\	.
!	!LO:TX:t=P:problem=fermata na kresce taktowej	!
8r	8r;	.
!!LO:PB:g=original
=51:|!	=51:|!	=51:|!
*k[f#c#]	*k[f#c#]	*
8D 8DD/	(32ee\KLL	.
.	16dd\JJ)	.
.	32r	.
8cnL 8A 8F# 8D\	4cccn 4ccn^<\	.
8cJ 8A 8F# 8D\	.	.
=52	=52	=52
8D 8DD/	(32ee\KLL	.
.	16dd\JJ)	.
.	32r	.
8BL 8G 8D\	4bb 4b^<\	.
8BJ 8G 8D\	.	.
=53	=53	=53
8D 8DD/	16.g/LL|	.
.	32a/JJk|	.
8B-XL 8G 8D\	(16b-X/LL	.
.	32ccn/L	.
.	32b-/JJJ	.
8B-J 8G 8D\	16a/LL)	.
.	16g/JJ|	.
=54	=54	=54
8DD/	16.f#/LL	.
.	32a/JJk	.
8AL 8F# 8D\	4d/	.
8AJ 8F# 8D\	.	.
=55	=55	=55
8DD/	(32e/KLL	.
.	16d/JJ)	.
.	32r	.
8cnL 8A 8F# 8D\	4ccn\	.
8cJ 8A 8F# 8D\	.	.
!!LO:LB:g=original
=56	=56	=56
8DD/	(32e/KLL	.
.	16d/JJ)	.
.	32r	.
8BL 8G 8D\	4b/	.
8BJ 8G 8D\	.	.
=57	=57	=57
8DD/	16.g/LL|	.
.	32a/JJk|	.
8B-XL 8G 8D\	(16b-X/LL	.
.	32ccn/L	.
.	32b-/JJJ	.
8B-J 8G 8D\	16a/LL)	.
.	16g/JJ|	.
=58	=58	=58
8DD/	16.f#X/LL|	.
.	32a/JJk|	.
8AL 8F# 8D\	(8ee-X\L	.
8AJ 8F# 8D\	8dd\J)	.
=59	=59	=59
8E-X 8EE-X/	(16gg\LL	.
.	16ffn\JJ)	.
8B-XL 8G 8E-\	8ee-X\	.
8AJ 8G 8E-\	(16g/LL	.
.	16a/JJ)	.
=60	=60	=60
*^	*	*
4.D/	8D\L	16.f#/LL|	.
.	.	32a/JJk|	.
.	8A 8F#\	(8ee-X\L	.
.	8AJ 8F#\	8dd\J)	.
!!LO:LB:g=original
=61	=61	=61	=61
4.E-X/	8E-\L	(16gg\LL	.
.	.	16ffn\JJ)	.
!	!	!LO:TX:t=P:problem=mixed beam	!
.	8B-X 8G\	8ee-X\L	.
.	8AJ 8G\	(16g/L	.
.	.	16a/JJ)	.
=62	=62	=62	=62
4D/	8D\L	(16f#/LL	.
.	.	16g/JJ)	.
.	8AJ 8F#\	8a/	.
8ryy	8r	8dd\	.
.	.	.	f
=63	=63	=63	=63
*	*	*tuplet	*
!	!	!LO:TUP:a:problem=klamra łukowa, łuczek zamiast numeru	!
4.D/	8D\L	24een\LL	.
.	.	24ff#\	.
.	.	24ee\JJ	.
.	8B 8G\	8bn\L	.
.	8B-XJ 8G\	8cc#X\J	.
=64	=64	=64	=64
4.D/	8D\L	16dd\LL	.
.	.	16ff#\JJ	.
.	8A 8F#\	4aa 4a\	.
.	8AJ 8F#\	.	.
=65	=65	=65	=65
!	!	!LO:TUP:a:problem=klamra łukowa, łuczek zamiast numeru	!
4.D/	8D\L	24ee\LL	.
.	.	24ff#\	.
.	.	24ee\JJ	.
.	8B 8G\	8b\L	.
.	8B-XJ 8G\	8cc#\J	.
!!LO:LB:g=original
=66	=66	=66	=66
*>E	*>E	*>E	*>E
4.D/	8D\L	(16ee\LL	.
.	.	16dd\JJ)	.
.	8A 8F#\	4a/	.
.	8AJ 8F#\	.	.
=67	=67	=67	=67
!	!	!LO:TUP:a:problem=klamra łukowa, łuczek zamiast numeru	!
4.D/	8D\L	24ee\LL	.
.	.	24ff#\	.
.	.	24ee\JJ	.
.	8B 8G\	8b\L	.
.	8B-XJ 8G\	8cc#\J	.
=68	=68	=68	=68
4.D/	8D\L	16dd|\LL	.
.	.	16ff#|\JJ	.
.	8A 8F#\	4aa| 4a\	.
.	8AJ 8F#\	.	.
=69	=69	=69	=69
!	!	!LO:TUP:a:problem=klamra łukowa, łuczek zamiast numeru	!
4.D/	8D\L	24ee\LL	.
.	.	24ff#\	.
.	.	24ee\JJ	.
.	8B 8G\	8b\L	.
.	8B-XJ 8G\	8cc#\J	.
.	.	.	f
*v	*v	*	*
=70	=70	=70
8A 8F# 8D\	8dd\	.
4d 4D\	4ddd 4ff# 4dd^<\	.
=71	=71	=71
8B 8BB\	8dd\	.
4B 4BB\	4ddd 4ff# 4dd^<\	.
!!LO:LB:g=original
=72	=72	=72
*^	*	*
4.GG/	8GG\L	16.eeeLL 16.ee\	.
.	.	32dddJJk 32dd\	.
.	8G 8E 8BB\	8ccc#L 8cc#\	.
.	8FnJ 8D 8BB 8GG#X\	8bbJ 8b\	.
=73	=73	=73	=73
4.AA/	8AA\L	16bbLL 16b\	.
.	.	16aaJJ 16a\	.
.	8A 8F#X 8D\	8dddL 8dd\	.
.	8AJ 8F# 8D\	8ff#J 8f#\	.
=74	=74	=74	=74
*rep	*rep	*	*
!	!	!LO:TX:t=P:problem=takty nr 74-76 skreślone ołówkiem	!
4.AA/	8AA\L	16bbLL 16b\	.
.	.	16aaJJ 16a\	.
.	8A 8F# 8D\	8dddL 8dd\	.
.	8AJ 8F# 8D\	8ff#J 8f#\	.
*Xrep	*Xrep	*	*
=75	=75	=75	=75
4.AA/	8AA\L	16bbLL 16b\	.
.	.	16aaJJ 16a\	.
.	8A 8G 8C#\	8ggL 8g\	.
.	8AJ 8G 8C#\	8eeJ 8e\	.
*v	*v	*	*
=76	=76	=76
8A 8F# 8D\	8dd 8d/	.
8D 8DD/	8ddd 8ff# 8dd\	.
8r	8r	.
!!LO:LB:g=original
=77||	=77||	=77||
*^	*	*
4.AA/	8AA\L	16fff#LL 16ff#\	.
.	.	16eeeJJ 16ee\	.
.	8A 8F# 8D\	8dddL 8dd\	.
.	8AJ 8F# 8D\	8ff#J 8f#\	.
=78	=78	=78	=78
4.AA/	8AA\L	16bbLL 16b\	.
.	.	16aaJJ 16a\	.
.	8A 8G 8C#\	8dd#XL 8d#X/	.
.	8AJ 8G 8C#\	8eeJ 8e/	.
=79	=79	=79	=79
*rep	*rep	*	*
4.AA/	8AA\L	16bbLL 16b\	.
.	.	16aaJJ 16a\	.
.	8A 8G 8C#\	8ggL 8g\	.
.	8AJ 8G 8C#\	8eeJ 8e\	.
*Xrep	*Xrep	*	*
*v	*v	*	*
=80	=80	=80
8A 8F# 8D\	8dd 8d/	.
8D 8DD/	8ddd 8ff# 8dd^<\	.
8r	8r	.
==	==	==
*-	*-	*-
!!!system-decoration: {(s1,s2)}
!!!RDF**kern: > = above
!!!RDF**kern: < = below
!!!RDF**kern: | = vertical stroke
!!!ENC: Andrzej Kubiczek
!!!END: 2021-06-19
!!!ENC: Andrzej Gręziak
!!!END: 2021-06-15
!!!YEC: Copyright 2022 Narodowy Instytut Fryderyka Chopina (https://polishscores.org)
!!!YEM: License CC-BY-4.0 (https://creativecommons.org/licenses/by/4.0)
